wallet_core/revocation_portal/assets/images/google_play_store.svg

<svg width="135" height="40" viewBox="0 0 135 40" fill="none" xmlns="http://www.w3.org/2000/svg">
<rect x="0.5" y="0.5" width="134" height="39" rx="4.5" fill="black"/>
<rect x="0.5" y="0.5" width="134" height="39" rx="4.5" stroke="#A6A6A6"/>
<path d="M106.935 30H108.801V17.4984H106.935V30ZM123.742 22.002L121.603 27.4219H121.539L119.319 22.002H117.309L120.639 29.577L118.74 33.791H120.686L125.817 22.002H123.742ZM113.159 28.5801C112.549 28.5801 111.696 28.2742 111.696 27.5184C111.696 26.5535 112.758 26.1836 113.674 26.1836C114.494 26.1836 114.881 26.3602 115.379 26.6016C115.234 27.7598 114.237 28.5801 113.159 28.5801ZM113.385 21.7285C112.034 21.7285 110.635 22.3238 110.056 23.6426L111.712 24.334C112.066 23.6426 112.725 23.4176 113.417 23.4176C114.382 23.4176 115.363 23.9961 115.379 25.0258V25.1543C115.041 24.9613 114.317 24.6719 113.433 24.6719C111.647 24.6719 109.83 25.6527 109.83 27.4863C109.83 29.159 111.294 30.2367 112.934 30.2367C114.188 30.2367 114.881 29.6738 115.314 29.0141H115.379V29.9797H117.181V25.1863C117.181 22.9668 115.523 21.7285 113.385 21.7285ZM101.853 23.5238H99.1986V19.2387H101.853C103.248 19.2387 104.04 20.3934 104.04 21.3812C104.04 22.35 103.248 23.5238 101.853 23.5238ZM101.805 17.4984H97.3334V30H99.1986V25.2637H101.805C103.873 25.2637 105.906 23.7668 105.906 21.3812C105.906 18.9961 103.873 17.4984 101.805 17.4984ZM77.4232 28.5824C76.1341 28.5824 75.0552 27.5027 75.0552 26.0211C75.0552 24.5223 76.1341 23.4273 77.4232 23.4273C78.6959 23.4273 79.6947 24.5223 79.6947 26.0211C79.6947 27.5027 78.6959 28.5824 77.4232 28.5824ZM79.5658 22.702H79.5013C79.0826 22.2027 78.2767 21.7516 77.2623 21.7516C75.1353 21.7516 73.1861 23.6207 73.1861 26.0211C73.1861 28.4051 75.1353 30.2578 77.2623 30.2578C78.2767 30.2578 79.0826 29.8066 79.5013 29.2914H79.5658V29.9031C79.5658 31.5309 78.6959 32.4004 77.2943 32.4004C76.1509 32.4004 75.442 31.5789 75.1517 30.8863L73.5248 31.5629C73.9916 32.6902 75.2318 34.0762 77.2943 34.0762C79.4857 34.0762 81.3384 32.7871 81.3384 29.6453V22.0094H79.5658V22.702ZM82.6275 30H84.4955V17.4984H82.6275V30ZM87.2506 25.8758C87.2025 24.2324 88.524 23.3949 89.474 23.3949C90.2154 23.3949 90.8431 23.7656 91.0533 24.2969L87.2506 25.8758ZM93.0502 24.4578C92.6959 23.5078 91.6166 21.7516 89.4095 21.7516C87.2181 21.7516 85.3978 23.4754 85.3978 26.0047C85.3978 28.3891 87.2025 30.2578 89.6185 30.2578C91.5677 30.2578 92.6959 29.066 93.1634 28.373L91.7134 27.4062C91.2299 28.1152 90.5697 28.5824 89.6185 28.5824C88.6685 28.5824 87.9916 28.1473 87.5572 27.2934L93.2435 24.9414L93.0502 24.4578ZM47.7424 23.0566V24.8609H52.0599C51.931 25.8758 51.5927 26.6168 51.0771 27.1324C50.4486 27.7605 49.4658 28.4535 47.7424 28.4535C45.0841 28.4535 43.006 26.3109 43.006 23.6527C43.006 20.9945 45.0841 18.8516 47.7424 18.8516C49.1763 18.8516 50.2232 19.4156 50.9966 20.1406L52.2697 18.8676C51.19 17.8367 49.7564 17.0473 47.7424 17.0473C44.1009 17.0473 41.04 20.0117 41.04 23.6527C41.04 27.2934 44.1009 30.2578 47.7424 30.2578C49.7076 30.2578 51.19 29.6133 52.3498 28.4051C53.542 27.2129 53.9127 25.5375 53.9127 24.184C53.9127 23.7656 53.8802 23.3789 53.8158 23.0566H47.7424ZM58.8213 28.5824C57.5322 28.5824 56.4205 27.5191 56.4205 26.0047C56.4205 24.4742 57.5322 23.4273 58.8213 23.4273C60.1099 23.4273 61.2216 24.4742 61.2216 26.0047C61.2216 27.5191 60.1099 28.5824 58.8213 28.5824ZM58.8213 21.7516C56.4685 21.7516 54.5517 23.5398 54.5517 26.0047C54.5517 28.4535 56.4685 30.2578 58.8213 30.2578C61.1732 30.2578 63.0904 28.4535 63.0904 26.0047C63.0904 23.5398 61.1732 21.7516 58.8213 21.7516ZM68.1341 28.5824C66.8459 28.5824 65.7338 27.5191 65.7338 26.0047C65.7338 24.4742 66.8459 23.4273 68.1341 23.4273C69.4232 23.4273 70.5345 24.4742 70.5345 26.0047C70.5345 27.5191 69.4232 28.5824 68.1341 28.5824ZM68.1341 21.7516C65.7822 21.7516 63.8654 23.5398 63.8654 26.0047C63.8654 28.4535 65.7822 30.2578 68.1341 30.2578C70.4869 30.2578 72.4037 28.4535 72.4037 26.0047C72.4037 23.5398 70.4869 21.7516 68.1341 21.7516Z" fill="white"/>
<path d="M46.336 12.264C45.776 12.84 45.0773 13.128 44.24 13.128C43.4027 13.128 42.7013 12.84 42.136 12.264C41.576 11.6827 41.296 10.9733 41.296 10.136C41.296 9.29867 41.576 8.592 42.136 8.016C42.7013 7.43467 43.4027 7.144 44.24 7.144C45.072 7.144 45.7707 7.43467 46.336 8.016C46.9013 8.59733 47.184 9.304 47.184 10.136C47.184 10.9733 46.9013 11.6827 46.336 12.264ZM42.68 11.784C43.1067 12.2107 43.6267 12.424 44.24 12.424C44.8533 12.424 45.3707 12.2107 45.792 11.784C46.2187 11.352 46.432 10.8027 46.432 10.136C46.432 9.46933 46.2187 8.92267 45.792 8.496C45.3707 8.064 44.8533 7.848 44.24 7.848C43.6267 7.848 43.1067 8.064 42.68 8.496C42.2587 8.92267 42.048 9.46933 42.048 10.136C42.048 10.8027 42.2587 11.352 42.68 11.784ZM48.0526 13V7.272H48.9486L51.7326 11.728H51.7646L51.7326 10.624V7.272H52.4686V13H51.7006L48.7886 8.328H48.7566L48.7886 9.432V13H48.0526ZM53.6229 13V7.272H55.3749C56.2549 7.272 56.9589 7.53867 57.4869 8.072C58.0149 8.6 58.2789 9.288 58.2789 10.136C58.2789 10.984 58.0149 11.6747 57.4869 12.208C56.9589 12.736 56.2549 13 55.3749 13H53.6229ZM54.3589 12.296H55.3749C56.0362 12.296 56.5589 12.1067 56.9429 11.728C57.3322 11.3493 57.5269 10.8187 57.5269 10.136C57.5269 9.45867 57.3322 8.93067 56.9429 8.552C56.5589 8.168 56.0362 7.976 55.3749 7.976H54.3589V12.296ZM62.4981 7.976H59.8901V9.792H62.2421V10.48H59.8901V12.296H62.4981V13H59.1541V7.272H62.4981V7.976ZM67.7301 7.272V7.304L65.6021 9.76L67.8741 12.968V13H66.9701L65.1061 10.328L64.2261 11.344V13H63.4901V7.272H64.2261V10.224H64.2581L66.7781 7.272H67.7301ZM70.4186 13H69.6826V7.976H68.0826V7.272H72.0186V7.976H70.4186V13ZM74.5448 13V7.272H75.2808V9.728H78.1448V7.272H78.8808V13H78.1448V10.416H75.2808V13H74.5448ZM83.3731 7.976H80.7651V9.792H83.1171V10.48H80.7651V12.296H83.3731V13H80.0291V7.272H83.3731V7.976ZM86.3171 13H85.5811V7.976H83.9811V7.272H87.9171V7.976H86.3171V13ZM95.0469 12.264C94.4869 12.84 93.7883 13.128 92.9509 13.128C92.1136 13.128 91.4123 12.84 90.8469 12.264C90.2869 11.6827 90.0069 10.9733 90.0069 10.136C90.0069 9.29867 90.2869 8.592 90.8469 8.016C91.4123 7.43467 92.1136 7.144 92.9509 7.144C93.7829 7.144 94.4816 7.43467 95.0469 8.016C95.6123 8.59733 95.8949 9.304 95.8949 10.136C95.8949 10.9733 95.6123 11.6827 95.0469 12.264ZM91.3909 11.784C91.8176 12.2107 92.3376 12.424 92.9509 12.424C93.5643 12.424 94.0816 12.2107 94.5029 11.784C94.9296 11.352 95.1429 10.8027 95.1429 10.136C95.1429 9.46933 94.9296 8.92267 94.5029 8.496C94.0816 8.064 93.5643 7.848 92.9509 7.848C92.3376 7.848 91.8176 8.064 91.3909 8.496C90.9696 8.92267 90.7589 9.46933 90.7589 10.136C90.7589 10.8027 90.9696 11.352 91.3909 11.784ZM97.4995 13H96.7635V7.272H98.7155C99.2008 7.272 99.6195 7.43467 99.9715 7.76C100.329 8.08 100.508 8.48533 100.508 8.976C100.508 9.46667 100.329 9.87467 99.9715 10.2C99.6195 10.52 99.2008 10.68 98.7155 10.68H97.4995V13ZM97.4995 9.976H98.7315C99.0408 9.976 99.2888 9.872 99.4755 9.664C99.6622 9.456 99.7555 9.22667 99.7555 8.976C99.7555 8.72533 99.6622 8.496 99.4755 8.288C99.2888 8.08 99.0408 7.976 98.7315 7.976H97.4995V9.976Z" fill="white"/>
<path d="M20.7149 19.4232L10.0684 30.7232C10.0688 30.7256 10.0696 30.7275 10.07 30.7299C10.3965 31.9568 11.5172 32.8604 12.8473 32.8604C13.379 32.8604 13.8782 32.7166 14.3063 32.4643L14.3403 32.4443L26.3243 25.5291L20.7149 19.4232Z" fill="#EA4335"/>
<path d="M31.486 17.4994L31.4758 17.4924L26.302 14.4931L20.4731 19.6799L26.3223 25.5283L31.4688 22.5588C32.3711 22.0717 32.9836 21.1205 32.9836 20.0236C32.9836 18.9346 32.3793 17.9881 31.486 17.4994Z" fill="#FBBC04"/>
<path d="M10.0679 9.27671C10.0039 9.51271 9.97021 9.75991 9.97021 10.0166V29.9842C9.97021 30.2404 10.0035 30.4885 10.0683 30.7236L21.0812 19.7127L10.0679 9.27671Z" fill="#4285F4"/>
<path d="M20.7933 20L26.3039 14.491L14.3335 7.5508C13.8984 7.2902 13.3906 7.1398 12.8472 7.1398C11.5171 7.1398 10.3949 8.0449 10.0683 9.2734C10.0679 9.2746 10.0679 9.2754 10.0679 9.2765L20.7933 20Z" fill="#34A853"/>
</svg>

<svg xmlns="http://www.w3.org/2000/svg" width="135" height="40" fill="none" viewBox="0 0 135 40"><rect width="134" height="39" x=".5" y=".5" fill="#000" rx="4.5"/><rect width="134" height="39" x=".5" y=".5" stroke="#a6a6a6" rx="4.5"/><path fill="#fff" d="M106.935 30h1.866V17.498h-1.866zm16.807-7.998-2.139 5.42h-.064l-2.22-5.42h-2.01l3.33 7.575-1.899 4.214h1.946l5.131-11.789zm-10.583 6.578c-.61 0-1.463-.306-1.463-1.062 0-.965 1.062-1.334 1.978-1.334.82 0 1.207.176 1.705.418a2.26 2.26 0 0 1-2.22 1.978m.226-6.851c-1.351 0-2.75.595-3.329 1.914l1.656.691c.354-.691 1.013-.916 1.705-.916.965 0 1.946.578 1.962 1.608v.128c-.338-.193-1.062-.482-1.946-.482-1.786 0-3.603.98-3.603 2.814 0 1.673 1.464 2.75 3.104 2.75 1.254 0 1.947-.562 2.38-1.222h.065v.966h1.802v-4.794c0-2.22-1.658-3.457-3.796-3.457m-11.532 1.795h-2.654v-4.285h2.654c1.395 0 2.187 1.154 2.187 2.142 0 .969-.792 2.143-2.187 2.143m-.048-6.026h-4.472V30H99.2v-4.736h2.606c2.068 0 4.101-1.497 4.101-3.883 0-2.385-2.033-3.883-4.101-3.883M77.423 28.582c-1.289 0-2.368-1.08-2.368-2.56 0-1.5 1.08-2.595 2.368-2.595 1.273 0 2.272 1.095 2.272 2.594 0 1.482-1 2.561-2.272 2.561m2.143-5.88H79.5c-.418-.5-1.224-.95-2.239-.95-2.127 0-4.076 1.869-4.076 4.27 0 2.383 1.95 4.236 4.076 4.236 1.015 0 1.82-.451 2.24-.967h.064v.612c0 1.628-.87 2.497-2.272 2.497-1.143 0-1.852-.821-2.142-1.514l-1.627.677c.467 1.127 1.707 2.513 3.77 2.513 2.19 0 4.043-1.289 4.043-4.43v-7.637h-1.772zM82.627 30h1.869V17.498h-1.868zm4.624-4.124c-.049-1.644 1.273-2.481 2.223-2.481.741 0 1.37.37 1.58.902zm5.8-1.418c-.355-.95-1.434-2.706-3.642-2.706-2.19 0-4.011 1.723-4.011 4.253 0 2.384 1.805 4.253 4.22 4.253 1.95 0 3.078-1.192 3.545-1.885l-1.45-.967c-.483.71-1.143 1.176-2.094 1.176s-1.627-.435-2.062-1.289l5.686-2.352zm-45.309-1.401v1.804h4.318c-.129 1.015-.467 1.756-.983 2.271-.628.628-1.611 1.321-3.335 1.321-2.658 0-4.736-2.142-4.736-4.8s2.078-4.801 4.736-4.801c1.434 0 2.481.564 3.255 1.289l1.273-1.273c-1.08-1.031-2.514-1.82-4.528-1.82-3.641 0-6.702 2.964-6.702 6.605 0 3.64 3.06 6.605 6.702 6.605 1.966 0 3.448-.645 4.608-1.853 1.192-1.192 1.563-2.867 1.563-4.221 0-.418-.033-.805-.097-1.127zm11.08 5.525c-1.29 0-2.402-1.063-2.402-2.577 0-1.53 1.112-2.578 2.401-2.578s2.4 1.047 2.4 2.578c0 1.514-1.111 2.577-2.4 2.577m0-6.83c-2.354 0-4.27 1.788-4.27 4.253 0 2.448 1.916 4.253 4.27 4.253 2.351 0 4.268-1.805 4.268-4.253 0-2.465-1.917-4.253-4.269-4.253m9.312 6.83c-1.288 0-2.4-1.063-2.4-2.577 0-1.53 1.112-2.578 2.4-2.578 1.29 0 2.4 1.047 2.4 2.578 0 1.514-1.11 2.577-2.4 2.577m0-6.83c-2.352 0-4.269 1.788-4.269 4.253 0 2.448 1.917 4.253 4.27 4.253s4.269-1.805 4.269-4.253c0-2.465-1.917-4.253-4.27-4.253M46.336 12.264q-.84.864-2.096.864t-2.104-.864q-.84-.871-.84-2.128 0-1.256.84-2.12.848-.872 2.104-.872 1.247 0 2.096.872.848.872.848 2.12 0 1.256-.848 2.128m-3.656-.48q.64.64 1.56.64t1.552-.64q.64-.648.64-1.648t-.64-1.64a2.08 2.08 0 0 0-1.552-.648 2.1 2.1 0 0 0-1.56.648q-.632.64-.632 1.64t.632 1.648M48.053 13V7.272h.896l2.784 4.456h.032l-.032-1.104V7.272h.736V13H51.7l-2.912-4.672h-.032l.032 1.104V13zm5.57 0V7.272h1.752q1.32 0 2.112.8.792.792.792 2.064t-.792 2.072q-.792.792-2.112.792zm.736-.704h1.016q.992 0 1.568-.568.584-.569.584-1.592 0-1.015-.584-1.584-.576-.576-1.568-.576h-1.016zm8.14-4.32H59.89v1.816h2.352v.688H59.89v1.816h2.608V13h-3.344V7.272h3.344zm5.231-.704v.032L65.602 9.76l2.272 3.208V13h-.904l-1.864-2.672-.88 1.016V13h-.736V7.272h.736v2.952h.032l2.52-2.952zM70.42 13h-.736V7.976h-1.6v-.704h3.936v.704h-1.6zm4.126 0V7.272h.736v2.456h2.864V7.272h.736V13h-.736v-2.584H75.28V13zm8.828-5.024h-2.608v1.816h2.352v.688h-2.352v1.816h2.608V13H80.03V7.272h3.344zM86.317 13h-.736V7.976h-1.6v-.704h3.936v.704h-1.6zm8.73-.736q-.84.864-2.096.864t-2.104-.864q-.84-.871-.84-2.128 0-1.256.84-2.12.848-.872 2.104-.872 1.248 0 2.096.872t.848 2.12q0 1.256-.848 2.128m-3.656-.48q.64.64 1.56.64t1.552-.64q.64-.648.64-1.648t-.64-1.64a2.08 2.08 0 0 0-1.552-.648 2.1 2.1 0 0 0-1.56.648q-.632.64-.632 1.64t.632 1.648M97.499 13h-.736V7.272h1.953q.728 0 1.256.488.536.48.536 1.216t-.536 1.224q-.528.48-1.256.48H97.5zm0-3.024h1.233q.464 0 .743-.312.28-.312.28-.688t-.28-.688-.743-.312h-1.233z"/><path fill="#ea4335" d="m20.715 19.423-10.647 11.3.002.007a2.875 2.875 0 0 0 4.236 1.734l.034-.02 11.984-6.915z"/><path fill="#fbbc04" d="m31.486 17.5-.01-.008-5.174-2.999-5.829 5.187 5.85 5.848 5.146-2.97a2.877 2.877 0 0 0 .017-5.059"/><path fill="#4285f4" d="M10.068 9.277a2.8 2.8 0 0 0-.098.74v19.967q.001.385.098.74l11.013-11.011z"/><path fill="#34a853" d="m20.793 20 5.51-5.509-11.97-6.94a2.882 2.882 0 0 0-4.265 1.722v.004z"/></svg>
